icons/svg/24x24/new window/filled.svg

<svg width="24" height="24" fill="none" xmlns="http://www.w3.org/2000/svg">
  <path fill-rule="evenodd" clip-rule="evenodd" d="M19 17c0 1.103-.897 2-2 2H7c-1.103 0-2-.897-2-2V8h14v9zM17 3H7C4.794 3 3 4.794 3 7v10c0 2.206 1.794 4 4 4h10c2.206 0 4-1.794 4-4V7c0-2.206-1.794-4-4-4z" fill="#000"/>
</svg>

<svg xmlns="http://www.w3.org/2000/svg" width="24" height="24" viewBox="0 0 24 24">
  <path fill-rule="evenodd" d="M19,17 C19,18.103 18.103,19 17,19 L7,19 C5.897,19 5,18.103 5,17 L5,8 L19,8 L19,17 Z M17,3 L7,3 C4.794,3 3,4.794 3,7 L3,8 L3,17 C3,19.206 4.794,21 7,21 L17,21 C19.206,21 21,19.206 21,17 L21,8 L21,7 C21,4.794 19.206,3 17,3 L17,3 Z"/>
</svg>
